X:1
T:James Gibb editions
T:Bon jour, bon mois - Dufay
T:#
%%score [ 1 2 3 ]
L:1/8
Q:1/4=120
M:3/4
K:G
V:1 treble nm="Alto" snm="A"
V:2 treble-8 nm="Tenor" snm="T"
V:3 bass nm="Bass" snm="B"
V:1
"^Guillaume Dufay\n(1397-1474)""^Bon jour, bon mois" E2 E2 E2 | B,4 E2 | F2 B4 | A2 G4 | (F4 E2) | %5
w: Bon jour, bon|mois, bon|an et|bon ne~es|trai\- *|
 (F2 ^C4 | A2 ^G3 F | F3 ^EE^D | F6) | F2 F2 F2 | G4 F2 | E2 A4 | G2 F4 | (E3 ^DD^C) | E6 | z4 E2 | %16
w: ne, *||||Vous doinst ce-|luy qui|tout tient|en de-|mai\- * * *|ne,|Ri-|
 D2 ^C4 | B,4 D2 | E2 (G4 | F2) (E3 D) | (F4 B,2 | ^CD ED/E/ FD | EF GF/G/ AG | EGFDEF | %24
w: ches- se,~hon-|nour, sain-|té, joy|* sans *|fyn, *||||
 DB,B,^A,A,^G, | B,6 || z6 | B,2 ^C2 D2 | E6 | E2 E2 E2 | A4 G2 | F6 | B2 B2 B2 | E4 ^G2 | %34
w: |||Bon- ne fa-|me,|bel- le da-|me, bon|vin,|Pour main- te-|nir la|
 A3 ^G F2 | E2 D4 | ^C4 B,2 | D2 F3 B, | B,4 G2 | F2 B3 A | G2 F3 E | A2 GEFG | E2 ^D2 E^C | E6- | %44
w: cre- a- tu-|re sai-|ne. *||||||||
 E6) || E2 E2 E2 | B,4 E2 | F2 B4 | A2 G4 | (F4 E2) | (F2- ^C4 | A2 ^G3 F | F3 ^EE^D | F6) | %54
w: |A- pres vous|doint qu'en|joye on|vous de-|mai\- *|ne. *||||
 F2 F2 F2 | G4 F2 | E2 A4 | G2 F4 | (E3 ^DD^C) | E6 | z4 E2 | D2 ^C4 | B,4 D2 | E2 G4 | F2 (E3 D) | %65
w: Et ly- es-|se tan-|tost on|vous a-|mei\- * * *|ne;|Ain-|si pour-|rez a-|voir, soir|et ma\- *|
 (F4 B,2 | ^CD ED/E/ FD | EF GF/G/ AG | EGFDEF | DB,B,^A,A,^G, | B,6) || E2 E2 E2 | B,4 E2 | %73
w: tin, *||||||Bon jour, bon|mois, bon|
 F2 B4 | A2 G4 | (F4 E2) | (F2 ^C4 | A2 ^G3 F | F3 ^E E^D | F6) | F2 F2 F2 | G4 F2 | E2 A4 | %83
w: an et|bon- ne~~es-|trai\- *|ne, *||||Vous doinst ce-|luy qui|tout tient|
 G2 F4 | (E3 ^DD^C) | E6 | z4 E2 | D2 ^C4 | B,4 D2 | E2 (G4 | F2) (E3 D) | (F4 B,2 | ^CD ED/E/ FD | %93
w: en de-|mai\- * * *|ne,|Ri-|ches- se,~hon-|nour, sain-|té, joy|* sans *|fyn, *||
 EF GF/G/ AG | E G F D E F | DB, B,^A, A,^G, | B,6 || E2 E2) E2 | B,4 E2 | F2 B4 | A2 G4 | %101
w: ||||Et puis vous|doint es-|pe- ran-|ce cer-|
 (F4 E2) | (F2 ^C4 | A2 ^G3 F | F3 ^EE^D | F6) | F2 F2 F2 | G4 F2 | E2 A4 | G2 F4 | (E3 ^DD^C) | %111
w: tai\- *|ne *||||Sans tris- tes-|se, sans|pen- sé-|e vil-|lai\- * * *|
 E6 | z4 E2 | D2 ^C4 | B,4 D2 | E2 G4 | F2 (E3 D) | (F4 B,2 | ^CD ED/E/ FD | EF GF/G/ AG | %120
w: ne;|Tous|voz de-|sirs a-|com- plir|de cueur *|fin. *|||
 EG FD EF | DB, B,^A, A,^G, | B,6) || z6 | B,2 ^C2 D2 | E6 | E2 E2 E2 | A4 G2 | F6 | B2 B2 B2 | %130
w: ||||Sans con- tre-|dit|so- yez en|la par-|fin|Las- sus lo-|
 E4 ^G2 | A3 G F2 | E2 D4 | (^C4 B,2 | D2 F3 B, | B,4 G2 | F2 B3 A | G2 F3 E | A2 GE FG | %139
w: gé- e~en|glo- rie sou-|ve- rai-|ne. *||||||
 E2 ^D2 E^C | E6- | E6) || E2 E2 E2 | B,4 E2 | F2 B4 | A2 G4 | (F4 E2) | (F2 ^C4 | A2 ^G3 F | %149
w: |||Bon jour, bon|mois, bon|an et|bon ne~es|trai\- *|ne, *||
 F3 ^E E^D | F6) | F2 F2 F2 | G4 F2 | E2 A4 | G2 F4 | (E3 ^D D^C) | E6 | z4 E2 | D2 ^C4 | B,4 D2 | %160
w: ||Vous doinst ce-|luy qui|tout tient|en de-|mai\- * * *|ne,|Ri-|ches- se~hon-|nour, sain-|
 E2 (G4 | F2) (E3 D) | (F4 B,2 | ^CD ED/E/ FD | EF GF/G/ AG | EG FD EF | DB, B,^A, A,^G, | B,6 | %168
w: té, joy|* sans *|fyn, *||||||
 z6 | B,2 ^C2 D2 | E6 | E2 E2 E2 | A4 G2 | F6 | B2 B2 B2 | E4 ^G2 | A3 ^G F2 | E2 D4 | ^C4 B,2 | %179
w: |Bon- ne fa-|me,|bel- le da-|me, bon|vin,|Pour main- te-|nir la|cre- a- tu-|re sai-|ne. *|
 D2 F3 B, | B,4 G2 | F2 B3 A | G2 F3 E | %183
w: ||||
[Q:1/4=118] A2[Q:1/4=116] G[Q:1/4=114]E[Q:1/4=112] F[Q:1/4=111]G | %184
w: |
[Q:1/4=109] E2[Q:1/4=106] ^D2[Q:1/4=104] E[Q:1/4=102]^C |[Q:1/4=102] E12) |] %186
w: ||
V:2
 E6 | G6 | (F4 G2) | F2 E4 | F2 B4 | A4 G2 | (F2 E4) | (F2 ^C4) | z2 D4 | B,4 B,2 | B2 ^c2 A2 | %11
w: Bon|jour,|bon *|mois, bon|an et|bon ne~es|trai\- *|ne, *|Vous|doinst ce-|luy qui tout|
 z2 c4 | d4 ^c2 | (B2 ^A4) | B6 | F6 | F4 F2 | B,4 B2 | A2 (d4 | c2) B4 | (A4 G2 | F2 E2 B,2 | %22
w: tient|en de-|mai\- *|ne,|Ri-|ches- se,~hon-|nour, sain-|té, joy|* sans|fyn, *||
 E4 F2 | B4 B2 | AG F2 ^E2 | F6 || F4 F2 | G4 A2 | z2 B4 | ^c4 B2 | ^c6 | d6 | B6 | z6 | F4 F2 | %35
w: ||||Bon- ne|fa- me,|bel-|le da-|me,|bon|vin,||cre- a-|
 F2 B,4 | A4 B2- | B2) (B,4 | B2 G2 E2 | z2 B,2 ^CD | E4 F2 | D2 E2 B,2 | B4 ^A2 | B6- | B6) || %45
w: tu- re|sai\- *|* ne.||||||||
 E6 | G6 | (F4 G2) | F2 E4 | F2 B4 | A4 G2 | (F2 E4) | (F2 ^C4) | z2 D4 | B,4 B,2 | B2 ^c2 A2 | %56
w: A-|pres|vous *|doint qu'en|joye on|vous de-|mai\- *|ne. *|Et|ly\-~ es-|se tan- tost|
 z2 ^c4 | d4 ^c2 | (B2 A4) | B6 | F6 | F4 F2 | B,4 B2 | A2 d4 | ^c2 B4 | (A4 G2 | F2 E2 B,2 | %67
w: on|vous a-|mei\- *|ne;|Ain-|si pour-|rez a-|voir, soir|et ma-|tin, *||
 E4 F2 | B4 B2 | AG F2 ^E2 | F6) || E6 | G6 | (F4 G2) | F2 E4 | F2 B4 | A4 G2 | (F2 E4) | %78
w: ||||Bon|jour,|bon *|mois, bon|an et|bon- ne~e~~s-|trai\- *|
 (F2 ^C4) | z2 D4 | B,4 B,2 | B2 ^c2 A2 | z2 c4 | d4 ^c2 | (B2 ^A4) | B6 | F6 | F4 F2 | B,4 B2 | %89
w: ne, *|Vous|doinst ce-|luy qui tout|tient|en de-|mai\- *|ne,|Ri-|ches- se,~hon-|nour, sain-|
 A2 (d4 | ^c2) B4 | (A4 G2 | F2 E2 B,2 | E4 x2 | B4 B2 | AG F2 ^E2) | F6 || E6 | G6 | (F4 G2) | %100
w: té, joy|* sans|fyn, *||||||Et|puis|vous *|
 F2 E4 | F2 B4 | A4 G2 | (F2 E4) | (F2 ^C4) | z2 D4 | B,4 B,2 | B2 ^c2 A2 | z2 ^c4 | d4 ^c2 | %110
w: doint es-|pe- ran-|ce cer-|tai\- *|ne *|Sans|tris- tes-|se, sans pen-|sé-|e vil-|
 (B2 ^A4) | B6 | F6 | F4 F2 | B,4 B2 | A2 d4 | ^c2 B4 | (A4 G2 | F2 E2 B,2 | E4 F2 | B4 B2 | %121
w: lai\- *|ne;|Tous|voz de-|sirs a-|com- plir|de cueur|fin. *||||
 AG F2 ^E2 | F6) || F4 F2 | G4 A2 | z2 B4 | ^c4 B2 | ^c6 | d6 | B6 | z6 | F4 F2 | F2 B,4 | %133
w: ||Sans con-|tre- dit|so-|yez en|la|par-|fin||glo- rie|sou- ve-|
 (A4 B2- | B2) (B,4 | B2 G2 E2 | z2 B,2 ^CD | E4 F2 | D2 E2 B,2 | B4 ^A2 | B6- | B6) || E6 | G6 | %144
w: rai\- *|* ne.||||||||Bon|jour,|
 (F4 G2) | F2 E4 | F2 B4 | A4 G2 | (F2 E4) | (F2 ^C4) | z2 D4 | B,4 B,2 | B2 ^c2 A2 | z2 c4 | %154
w: bon *|mois, bon|an et|bon ne~es|trai\- *|ne, *|Vous|doinst ce-|luy qui tout|tient|
 d4 ^c2 | (B2 ^A4) | B6 | F6 | F4 F2 | B,4 B2 | A2 (d4 | ^c2) B4 | (A4 G2 | F2 E2 B,2 | E4 F2 | %165
w: en de-|mai\- *|ne,|Ri-|ches- se~hon-|nour, sain-|té, joy|* sans|fyn, *|||
 B4 B2 | AG F2 ^E2 | F6 | F4 F2 | G4 A2 | z2 B4 | ^c4 B2 | ^c6 | d6 | B6 | z6 | F4 F2 | F2 B,4 | %178
w: |||Bon- ne|fa- me,|bel-|le da-|me,|bin|vin,||cre- a-|tu- re|
 A4 B2- | B2) (B,4 | B2 G2 E2 | z2 B,2 ^CD | E4 F2 | D2 E2 B,2 | B4 ^A2 | B12) |] %186
w: sai\- *|* ne.|||||||
V:3
 z6 | E,2 E,2 E,2 | B,,4 E,2 | F,2 B,4 | A,2 G,4 | (F,4 E,2) | (F,2 ^C,4 | A,2 ^G,4 | F,4) F,2 | %9
w: |Bon jour, bon|mois, bon|an et|bon ne~es|trai\- *|ne, *||* Vous|
 B,4 B,2 | E,4 F,2 | A,4 A,2 | B,4 A,2 | (G,2 F,4) | E,6 | A,6 | A,4 A,2 | B,4 B,2 | ^C2 (B,4 | %19
w: doinst ce-|luy qui|tout tient|en de-|mai\- *|ne,|Ri-|ches- se,~hon-|nour, sain-|té, joy|
 A,2) G,4 | (F,4 E,2 | A,2 G,2 F,2 | z2 E,2 D,2 | E,2 B,,4 | D,4 ^C,2 | B,,6 || B,,2 ^C,2 D,2 | %27
w: * sans|fyn, *||||||Bon- ne fa-|
 E,6 | E,2 E,2 E,2 | A,4 G,2 | F,6 | B,2 B,2 B,2 | E,4 ^G,2 | (A,2 ^C2) B,2 | A,6- | A,2 B,4 | %36
w: me,|bel- le da-|me, bon|vin,|Pour main- te-|nir la|cre\- * a-|tu\-|* re|
 F,4 G,2- | G,2 F,4) | z2 (E,4- | B,4 E,2 | z2 B,2 A,2 | z2 C2 B,2 | G,2 F,4 | E,6- | E,6) || z6 | %46
w: sai\- *||ne.||||||||
 E,2 E,2 E,2 | B,,4 E,2 | F,2 B,4 | A,2 G,4 | (F,4 E,2) | (F,2 ^C,4 | A,2 ^G,4 | F,4) F,2 | %54
w: A- pres vous|doint qu'en|joye on|vous de-|mai- *|ne. *||* Et|
 B,4 B,2 | E,4 F,2 | A,4 A,2 | B,4 A,2 | (G,2 F,4) | E,6 | A,6 | A,4 A,2 | B,4 B,2 | ^C2 B,4 | %64
w: ly- es-|se tan-|tost on|vous a-|mei\- *|ne;|Ain-|si pour-|rez a-|voir, soir|
 A,2 G,4 | (F,4 E,2 | A,2 G,2 F,2 | z2 E,2 D,2 | E,2 B,,4 | D,4 ^C,2 | B,,6) || z6 | E,2 E,2 E,2 | %73
w: et ma-|tin, *|||||||Bon jour, bon|
 B,,4 E,2 | F,2 B,4 | A,2 G,4 | (F,4 E,2) | (F,2 ^C,4 | A,2 ^G,4 | F,4) F,2 | B,4 B,2 | E,4 F,2 | %82
w: mois, bon|an et|bon- ne~~es-|trai\- *|ne, *||* Vous|doinst ce-|luy qui|
 A,4 A,2 | B,4 A,2 | (G,2 F,4) | E,6 | A,6 | A,4 A,2 | B,4 B,2 | ^C2 (B,4 | A,2) G,4 | (F,4 E,2 | %92
w: tout tient|en de-|mai\- *|ne,|Ri-|ches- se,~hon-|nour, sain-|té, joy|* sans|fyn, *|
 A,2 G,2 F,2 | z2 E,2 D,2 | E,2 B,,4 | D,4 ^C,2 | B,,6) || z6 | E,2 E,2 E,2 | B,,4 E,2 | F,2 B,4 | %101
w: ||||||Et puis vous|doint es-|pe- ran-|
 A,2 G,4 | (F,4 E,2) | (F,2 ^C,4 | A,2 ^G,4 | F,4) F,2 | B,4 B,2 | E,4 F,2 | A,4 A,2 | B,4 A,2 | %110
w: ce cer-|tai\- *|ne *||* Sans|tris- tes-|se, sans|pen- sé-|e vil-|
 (G,2 F,4) | E,6 | A,6 | A,4 A,2 | B,4 B,2 | ^C2 B,4 | A,2 G,4 | (F,4 E,2 | A,2 G,2 F,2 | %119
w: lai\- *|ne;|Tous|voz de-|sirs a-|com- plir|de cueur|fin. *||
 z2 E,2 D,2 | E,2 B,,4 | D,4 ^C,2 | B,,6) || B,,2 ^C,2 D,2 | E,6 | E,2 E,2 E,2 | A,4 G,2 | F,6 | %128
w: ||||Sans con- tre-|dit|so- yez en|la par-|fin|
 B,2 B,2 B,2 | E,4 ^G,2 | (A,2 ^C2) B,2 | A,6- | A,2 B,4 | (F,4 G,2- | G,2 F,4) | z2 (E,4- | %136
w: Las- sus lo-|gé- e~en|glo\- * rie|sou\-|* ve-|rai\- *||ne.|
 B,4 E,2 | z2 B,2 A,2 | z2 C2 B,2 | G,2 F,4 | E,6- | E,6) || z6 | E,2 E,2 E,2 | B,,4 E,2 | %145
w: |||||||Bon jour, bon|mois, bon|
 F,2 B,4 | A,2 G,4 | (F,4 E,2) | (F,2 ^C,4 | A,2 ^G,4 | F,4) F,2 | B,4 B,2 | E,4 F,2 | A,4 A,2 | %154
w: an et|bon ne~es|trai\- *|ne, *||* Vous|doinst ce-|luy qui|tout tient|
 B,4 A,2 | (G,2 F,4) | E,6 | A,6 | A,4 A,2 | B,4 B,2 | ^C2 (B,4 | A,2) G,4 | (F,4- E,2 | %163
w: en de-|mai\- *|ne,|Ri-|ches- se~hon-|nour, sain-|té, joy|* sans|fyn, *|
 A,2 G,2 F,2 | z2 E,2 D,2 | E,2 B,,4 | D,4 ^C,2 | B,,6 | B,,2 ^C,2 D,2 | E,6 | E,2 E,2 E,2 | %171
w: |||||Bon- ne fa-|me,|bel- le da-|
 A,4 G,2 | F,6 | B,2 B,2 B,2 | E,4 ^G,2 | (A,2 ^C2) B,2 | A,6- | A,2 B,4 | F,4 G,2- | G,2 F,4) | %180
w: me, bon|vin,|Pour main- te-|nir la|cre\- * a-|tu\-|* re|sai\- *||
 z2 (E,4- | B,4 E,2 | z2 B,2 A,2 | z2 C2 B,2 | G,2 F,4 | E,12) |] %186
w: ne.||||||

